X: 1
T: Camerons Got his Wife Again
M: 4/4
L: 1/8
Q: 1/4=172
K: D
(3ABc|d>B A<F A/A/A (3ABc|d>B A<F E/E/E (3ABc|d>B A<F A>g f>e|d>B A>F D/D/D:|
D>g|f>d f<a e>g f>e|f>d f<a B/B/B (3Bag|f>d f<a e>g f>e|d>B A>F D/D/D D>g|
f>d f<a e>g f>e|f>d f<a B/B/B Bz|d/e/f/g/ a>f e>g f>e|d>B A>F D/D/D|]
